X:734
T:The Widow Brady
M:6/8
L:1/8
B:O'Neill's 734
R:Jig
Z:"Transcribed by Bob Safranek, rjs@gsp.org"
N:"Collected by F. O'Neill"
K:D
d|AFD DFA|AFA B2 d|AFD    DFA|fdB B2 d|
AFD DFA|AFA B2 d|def agfe|fdd d2     :|
|: d|afd fed|ecA Ace|fed    dcd|ecA A2 f/g/|
aba gfe|fed cBA|Bcd    efg|fdd d2     :|
